images_sukapura_svg/cmd/lc_gallery.svg

<svg viewBox="0 0 24 24" xmlns="http://www.w3.org/2000/svg" xmlns:xlink="http://www.w3.org/1999/xlink"><radialGradient id="a" cx="12" cy="17.5" gradientTransform="matrix(1.7777778 -.00000002 .00000003 1.3333333 -9.333334 -6.333333)" gradientUnits="userSpaceOnUse" r="9"><stop offset="0" stop-color="#fff9ea"/><stop offset=".29417419" stop-color="#fdd6ba"/><stop offset=".75" stop-color="#f6ac8b"/><stop offset="1" stop-color="#c79fc7"/></radialGradient><filter id="b" color-interpolation-filters="sRGB" height="1.264" width="1.058667" x="-.029333" y="-.132"><feGaussianBlur stdDeviation=".22"/></filter><clipPath id="c"><path d="m3 14c.4875945 0 6-4 6-4l2 1.593356 4-1.593356h2l4 2v2z"/></clipPath><radialGradient id="d" cx="15.000001" cy="13.642857" gradientTransform="matrix(1.6666667 .00000041 -.00000016 .77777777 -10 6.388883)" gradientUnits="userSpaceOnUse" r="9"><stop offset="0" stop-color="#f7f2f6"/><stop offset=".40000007" stop-color="#c2a2ba"/><stop offset=".75000006" stop-color="#be9bb4"/><stop offset="1" stop-color="#ac80a1"/></radialGradient><filter id="e" color-interpolation-filters="sRGB" height="1.072" width="1.072" x="-.036" y="-.036"><feGaussianBlur stdDeviation=".31833684"/></filter><path d="m1.3887721 2.4145895v20.1966385h21.2224559v-20.1966385z" filter="url(#e)" opacity=".57" stroke-width="1.061123" transform="matrix(.97144978 0 0 .97483239 .234739 .589648)"/><path d="m3 3h18v18h-18z" fill="#fff"/><path d="m2 3v19h20v-19zm1 1h18v17h-18z" fill="#fff"/><path d="m3 4h18v13h-18z" fill="url(#a)"/><path d="m3 17c.4875945 0 6-4 6-4l2 1.593356 4-1.593356h2l4 2v2z" fill="#1f1c1f" fill-rule="evenodd"/><path clip-path="url(#c)" d="m9 10s-5.5124055 4-6 4h1.6992188c1.7852844-1.183321 4.3007812-3 4.3007812-3l2 1.59375 4-1.59375h2l4 2v-1l-4-2h-2l-4 1.59375z" fill="#808080" fill-rule="evenodd" filter="url(#b)" transform="translate(0 3)"/><path d="m3 17h18v4h-18z" fill="url(#d)"/></svg>

<?xml version="1.0" encoding="UTF-8" standalone="no"?>
<svg
   xmlns:dc="http://purl.org/dc/elements/1.1/"
   xmlns:cc="http://creativecommons.org/ns#"
   xmlns:rdf="http://www.w3.org/1999/02/22-rdf-syntax-ns#"
   xmlns:svg="http://www.w3.org/2000/svg"
   xmlns="http://www.w3.org/2000/svg"
   xmlns:xlink="http://www.w3.org/1999/xlink"
   xmlns:sodipodi="http://sodipodi.sourceforge.net/DTD/sodipodi-0.dtd"
   xmlns:inkscape="http://www.inkscape.org/namespaces/inkscape"
   viewBox="0 0 24 24"
   version="1.1"
   id="svg10"
   sodipodi:docname="lc_gallery.svg"
   inkscape:version="0.92.3 (unknown)"
   inkscape:export-filename="/home/rizmut/Dokumen/Rizmut/Github/libreoffice-style-colibrex/images_colibrex/cmd/lc_gallery.png"
   inkscape:export-xdpi="96"
   inkscape:export-ydpi="96">
  <metadata
     id="metadata16">
    <rdf:RDF>
      <cc:Work
         rdf:about="">
        <dc:format>image/svg+xml</dc:format>
        <dc:type
           rdf:resource="http://purl.org/dc/dcmitype/StillImage" />
        <dc:title></dc:title>
      </cc:Work>
    </rdf:RDF>
  </metadata>
  <defs
     id="defs14">
    <linearGradient
       inkscape:collect="always"
       id="linearGradient1539">
      <stop
         style="stop-color:#f7f2f6;stop-opacity:1"
         offset="0"
         id="stop1535" />
      <stop
         id="stop1543"
         offset="0.40000007"
         style="stop-color:#c2a2ba;stop-opacity:1;" />
      <stop
         style="stop-color:#be9bb4;stop-opacity:1"
         offset="0.75000006"
         id="stop1545" />
      <stop
         style="stop-color:#ac80a1;stop-opacity:1"
         offset="1"
         id="stop1537" />
    </linearGradient>
    <linearGradient
       inkscape:collect="always"
       id="linearGradient1496">
      <stop
         style="stop-color:#fff9ea;stop-opacity:1"
         offset="0"
         id="stop1492" />
      <stop
         style="stop-color:#fdd6ba;stop-opacity:1"
         offset="0.29417419"
         id="stop1504" />
      <stop
         style="stop-color:#f6ac8b;stop-opacity:1"
         offset="0.75"
         id="stop1502" />
      <stop
         style="stop-color:#c79fc7;stop-opacity:1"
         offset="1"
         id="stop1494" />
    </linearGradient>
    <radialGradient
       inkscape:collect="always"
       xlink:href="#linearGradient1496"
       id="radialGradient1498"
       cx="12"
       cy="17.5"
       fx="12"
       fy="17.5"
       r="9"
       gradientTransform="matrix(1.7777778,-1.7697512e-8,3.3865328e-8,1.3333333,-9.3333339,-6.3333326)"
       gradientUnits="userSpaceOnUse" />
    <filter
       inkscape:collect="always"
       style="color-interpolation-filters:sRGB"
       id="filter1523"
       x="-0.029333333"
       width="1.0586667"
       y="-0.132"
       height="1.264">
      <feGaussianBlur
         inkscape:collect="always"
         stdDeviation="0.22"
         id="feGaussianBlur1525" />
    </filter>
    <clipPath
       clipPathUnits="userSpaceOnUse"
       id="clipPath1529">
      <path
         sodipodi:nodetypes="cccccccc"
         style="fill:#1f1c1f;fill-opacity:1;fill-rule:evenodd"
         inkscape:connector-curvature="0"
         id="path1531"
         d="m 3,14 c 0.4875945,0 6,-4 6,-4 L 11,11.593356 15,10 h 2 l 4,2 v 2 z" />
    </clipPath>
    <radialGradient
       inkscape:collect="always"
       xlink:href="#linearGradient1539"
       id="radialGradient1541"
       cx="15.000001"
       cy="13.642857"
       fx="15.000001"
       fy="13.642857"
       r="9"
       gradientTransform="matrix(1.6666667,4.1026946e-7,-1.6455994e-7,0.77777777,-9.9999998,6.388883)"
       gradientUnits="userSpaceOnUse" />
    <filter
       inkscape:collect="always"
       style="color-interpolation-filters:sRGB"
       id="filter1557"
       x="-0.036"
       width="1.072"
       y="-0.036"
       height="1.072">
      <feGaussianBlur
         inkscape:collect="always"
         stdDeviation="0.31833684"
         id="feGaussianBlur1559" />
    </filter>
  </defs>
  <sodipodi:namedview
     pagecolor="#ffffff"
     bordercolor="#666666"
     borderopacity="1"
     objecttolerance="10"
     gridtolerance="10"
     guidetolerance="10"
     inkscape:pageopacity="0"
     inkscape:pageshadow="2"
     inkscape:window-width="1366"
     inkscape:window-height="706"
     id="namedview12"
     showgrid="true"
     inkscape:snap-global="true"
     inkscape:zoom="1.7383042"
     inkscape:cx="30.00292"
     inkscape:cy="-10.968865"
     inkscape:window-x="-1"
     inkscape:window-y="-1"
     inkscape:window-maximized="0"
     inkscape:current-layer="svg10">
    <inkscape:grid
       type="xygrid"
       id="grid823" />
  </sodipodi:namedview>
  <path
     style="opacity:0.56999966;fill:#000000;fill-opacity:1;stroke-width:1.06112278;filter:url(#filter1557)"
     id="path1547"
     d="M 1.3887721,2.4145895 V 22.611228 H 22.611228 V 2.4145895 Z"
     inkscape:connector-curvature="0"
     sodipodi:nodetypes="ccccc"
     transform="matrix(0.97144978,0,0,0.97483239,0.23473925,0.58964804)" />
  <path
     d="m3 3h18v18h-18z"
     fill="#fff"
     id="path2" />
  <path
     d="M 2,3 V 22 H 22 V 3 Z M 3,4 H 21 V 21 H 3 Z"
     id="path4"
     style="fill:#ffffff;fill-opacity:1"
     inkscape:connector-curvature="0"
     sodipodi:nodetypes="cccccccccc" />
  <rect
     style="opacity:1;fill:url(#radialGradient1498);fill-opacity:1;stroke:none;stroke-width:1;stroke-linecap:round;stroke-linejoin:round;stroke-miterlimit:4;stroke-dasharray:none;stroke-opacity:1"
     id="rect1490"
     width="18"
     height="13"
     x="3"
     y="4" />
  <path
     d="m 3,17 c 0.4875945,0 6,-4 6,-4 L 11,14.593356 15,13 h 2 l 4,2 v 2 z"
     id="path8"
     inkscape:connector-curvature="0"
     style="fill:#1f1c1f;fill-opacity:1;fill-rule:evenodd"
     sodipodi:nodetypes="cccccccc" />
  <path
     style="fill:#808080;fill-opacity:1;fill-rule:evenodd;filter:url(#filter1523)"
     d="m 9,10 c 0,0 -5.5124055,4 -6,4 H 4.6992188 C 6.4845032,12.816679 9,11 9,11 L 11,12.59375 15,11 h 2 l 4,2 v -1 l -4,-2 h -2 l -4,1.59375 z"
     id="path1508"
     clip-path="url(#clipPath1529)"
     inkscape:connector-curvature="0"
     transform="translate(0,3)" />
  <rect
     style="opacity:1;fill:url(#radialGradient1541);fill-opacity:1;stroke:none;stroke-width:1;stroke-linecap:round;stroke-linejoin:round;stroke-miterlimit:4;stroke-dasharray:none;stroke-opacity:1"
     id="rect1533"
     width="18"
     height="4"
     x="3"
     y="17" />
</svg>
